!!!!SEGMENT:Giritonasake.krn
!!!OTL: 義理と情け
!!!OPR:Eiga Banso Kyokusyu,jidai-geki,kouhen
!!!YOY:1928
!!!ONB:LoveScene
**kern
*clefG2
*k[f#]
*G:
*M2/4
=1
4B
4a
=2
4b
4b
=3
4cc
4b
=4
4cc
4r
=5
4ee
4cc
=6
4b
4cc#X
=7
4g
4f#
=8
4e
4r
=9
4ee
8ccL
8bJ
=10
4ee
4ff#
=11
2gg
=12
4gg
4ff#
=13
4ee
4cc
=14
4b
4r
=15
4B
4a
=16
4b
4b
=17
4cc
4b
=18
2cc
=19
4ee
4cc
=20
4b
4cc#X
=21
4g
4f#
=22
2e
=23
4f#
4e
=24
4f#
4g
=25
8bL
8bJ
8bL
8gJ
=26
4f#
4r
=27
8gL
8gJ
8f#L
8eJ
=28
4f#
4r
==
*-
!!!ENC: Yukiko Yoden
!!!END: 2023/06/11
